static/img/pages/customers/cards/datron.svg

<svg width="102" height="20" viewBox="0 0 102 20" fill="none" xmlns="http://www.w3.org/2000/svg"><path fill-rule="evenodd" clip-rule="evenodd" d="M0 0v2.066h101.013V0H0zm74.442 3.519c-2.408-.007-4.474 0-4.595.014-1.631.22-2.75.847-3.234 1.823-.428.847-.47 1.233-.47 4.154 0 2.322.014 2.7.136 3.205.263 1.14.725 1.76 1.687 2.238 1.076.541 1.076.54 6.298.54 4.566 0 4.636-.006 5.184-.155 1.568-.45 2.288-1.127 2.665-2.516.114-.406.13-.805.13-3.312 0-3.12-.016-3.276-.444-4.145-.399-.805-1.182-1.354-2.393-1.674-.562-.15-.718-.158-4.964-.172zm0 2.992c2.493.014 2.614.022 2.998.171.47.186.713.42.933.904.143.32.163.498.185 1.645.035 1.432-.042 2.117-.291 2.552-.406.72-.699.768-4.275.732-3.148-.029-3.242-.034-3.662-.454-.392-.4-.483-.842-.483-2.445 0-1.552.063-1.965.405-2.428.235-.328.62-.528 1.204-.628.214-.036 1.554-.063 2.986-.049zM0 3.626v11.761h5.755c3.412 0 6.013-.029 6.39-.072 1.746-.2 2.737-.748 3.235-1.803.37-.79.399-1.053.399-4.038 0-2.408-.015-2.8-.13-3.206-.377-1.382-1.16-2.095-2.713-2.444-.62-.135-.913-.148-6.79-.169L0 3.626zm3.633 2.992l7.379.042.35.178c.3.15.392.25.57.606l.214.427v1.603c0 1.482-.014 1.624-.15 1.93a2.13 2.13 0 01-.356.521c-.413.385-.593.398-4.46.398H3.632l.001-5.705zM49.01 3.626v11.761h3.634v-3.07l3.154.02c3.013.021 3.164.03 3.4.165.434.256.532.554.554 1.794l.029 1.09h3.633l-.03-1.482c-.035-1.581-.09-1.864-.453-2.342-.214-.285-.7-.578-1.156-.699l-.334-.084.285-.08c.157-.043.463-.184.677-.312.47-.285.791-.777.92-1.383.092-.491.105-2.436.013-2.92-.242-1.261-.842-1.93-2.053-2.287-.37-.106-1.033-.123-6.34-.15l-5.932-.021h-.001zm6.503 2.985c3.113-.021 3.598 0 3.954.185.356.185.456.498.427 1.331-.021.656-.035.714-.22.906-.145.136-.32.236-.512.292-.207.05-1.404.078-3.413.078h-3.105V6.625l2.869-.014zM23.314 3.632l-3.16 5.813a1486.102 1486.102 0 00-3.186 5.877c-.015.036.854.065 1.994.065h2.017l.519-1.033.514-1.033 3.675.013 3.682.022.544 1.011.54 1.02h4.032l-.22-.414c-.121-.221-1.576-2.856-3.228-5.855l-3.012-5.45-2.351-.022-2.36-.014zm2.331 2.779c.021 0 .54.955 1.16 2.13.613 1.169 1.12 2.145 1.12 2.173 0 .021-1.012.042-2.251.042-1.453 0-2.238-.028-2.224-.07.057-.179 2.167-4.275 2.195-4.275zm7.195-2.779v2.85h5.058v8.905h3.704l.013-4.44.023-4.43 2.513-.021 2.509-.014v-2.85H32.84zm52.216.054l.014 5.855.022 5.864 1.8.022 1.797.013v-4.252c0-3.982.007-4.247.12-4.14.065.07 1.583 1.973 3.37 4.238l3.248 4.119 2.792.022 2.794.013V3.686h-3.562v4.245c0 2.437-.029 4.233-.065 4.219-.035-.014-1.559-1.925-3.39-4.248l-3.334-4.216h-5.606zM0 17.079v2.065h101.013v-2.066L0 17.079z" fill="#fff"/></svg>

<svg width="102" height="20" viewBox="0 0 102 20" fill="none" xmlns="http://www.w3.org/2000/svg">
<path fill-rule="evenodd" clip-rule="evenodd" d="M0 0V2.066H101.013V0H0ZM74.442 3.519C72.034 3.512 69.968 3.519 69.847 3.533C68.216 3.753 67.097 4.38 66.613 5.356C66.185 6.203 66.143 6.589 66.143 9.51C66.143 11.832 66.157 12.21 66.279 12.715C66.542 13.855 67.004 14.475 67.966 14.953C69.042 15.494 69.042 15.493 74.264 15.493C78.83 15.493 78.9 15.487 79.448 15.338C81.016 14.888 81.736 14.211 82.113 12.822C82.227 12.416 82.243 12.017 82.243 9.51C82.243 6.39 82.227 6.234 81.799 5.365C81.4 4.56 80.617 4.011 79.406 3.691C78.844 3.541 78.688 3.533 74.442 3.519ZM74.442 6.511C76.935 6.525 77.056 6.533 77.44 6.682C77.91 6.868 78.153 7.102 78.373 7.586C78.516 7.906 78.536 8.084 78.558 9.231C78.593 10.663 78.516 11.348 78.267 11.783C77.861 12.503 77.568 12.551 73.992 12.515C70.844 12.486 70.75 12.481 70.33 12.061C69.938 11.661 69.847 11.219 69.847 9.61599C69.847 8.064 69.91 7.651 70.252 7.188C70.487 6.86 70.872 6.66 71.456 6.56C71.67 6.524 73.01 6.497 74.442 6.511ZM0 3.626V15.387H5.755C9.167 15.387 11.768 15.358 12.145 15.315C13.891 15.115 14.882 14.567 15.38 13.512C15.75 12.722 15.779 12.459 15.779 9.474C15.779 7.066 15.764 6.674 15.649 6.268C15.272 4.886 14.489 4.173 12.936 3.824C12.316 3.689 12.023 3.676 6.146 3.655L0 3.626ZM3.633 6.618L11.012 6.66L11.362 6.838C11.662 6.988 11.754 7.088 11.932 7.444L12.146 7.871V9.474C12.146 10.956 12.132 11.098 11.996 11.404C11.9044 11.5947 11.7844 11.7704 11.64 11.925C11.227 12.31 11.047 12.323 7.18 12.323H3.632L3.633 6.618ZM49.01 3.626V15.387H52.644V12.317L55.798 12.337C58.811 12.358 58.962 12.367 59.198 12.502C59.632 12.758 59.73 13.056 59.752 14.296L59.781 15.386H63.414L63.384 13.904C63.349 12.323 63.294 12.04 62.931 11.562C62.717 11.277 62.231 10.984 61.775 10.863L61.441 10.779L61.726 10.699C61.883 10.656 62.189 10.515 62.403 10.387C62.873 10.102 63.194 9.60999 63.323 9.004C63.415 8.513 63.428 6.568 63.336 6.084C63.094 4.823 62.494 4.154 61.283 3.797C60.913 3.691 60.25 3.674 54.943 3.647L49.011 3.626H49.01ZM55.513 6.611C58.626 6.59 59.111 6.611 59.467 6.796C59.823 6.981 59.923 7.294 59.894 8.127C59.873 8.783 59.859 8.841 59.674 9.033C59.5287 9.16932 59.3533 9.26937 59.162 9.325C58.955 9.375 57.758 9.403 55.749 9.403H52.644V6.625L55.513 6.611ZM23.314 3.632L20.154 9.445C19.0876 11.4016 18.0256 13.3606 16.968 15.322C16.953 15.358 17.822 15.387 18.962 15.387H20.979L21.498 14.354L22.012 13.321L25.687 13.334L29.369 13.356L29.913 14.367L30.453 15.387H34.485L34.265 14.973C34.144 14.752 32.689 12.117 31.037 9.118L28.025 3.668L25.674 3.646L23.314 3.632ZM25.645 6.411C25.666 6.411 26.185 7.366 26.805 8.541C27.418 9.70999 27.925 10.686 27.925 10.714C27.925 10.735 26.913 10.756 25.674 10.756C24.221 10.756 23.436 10.728 23.45 10.686C23.507 10.507 25.617 6.411 25.645 6.411ZM32.84 3.632V6.482H37.898V15.387H41.602L41.615 10.947L41.638 6.517L44.151 6.496L46.66 6.482V3.632H32.84ZM85.056 3.686L85.07 9.541L85.092 15.405L86.892 15.427L88.689 15.44V11.188C88.689 7.206 88.696 6.941 88.809 7.048C88.874 7.118 90.392 9.021 92.179 11.286L95.427 15.405L98.219 15.427L101.013 15.44V3.686H97.451V7.931C97.451 10.368 97.422 12.164 97.386 12.15C97.351 12.136 95.827 10.225 93.996 7.902L90.662 3.686H85.056ZM0 17.079V19.144H101.013V17.078L0 17.079Z" fill="white"/>
</svg>
